casedrop/img/case/case-final/icons/rules-white.svg

<svg width="21" height="21" viewBox="0 0 21 21" fill="none" xmlns="http://www.w3.org/2000/svg">
<path d="M17.0625 19.6875H3.9375C3.9375 19.6875 2.625 19.6438 2.625 16.1875H18.375C18.375 19.6438 17.0625 19.6875 17.0625 19.6875Z" fill="#C4C4C4"/>
<path d="M3.5 1.3125H17.5V16.1875H3.5V1.3125Z" fill="white"/>
<path d="M7.875 6.5625H14.875V7.4375H7.875V6.5625ZM7.875 8.3125H14.875V9.1875H7.875V8.3125ZM7.875 10.0625H14.875V10.9375H7.875V10.0625ZM7.875 11.8125H14.875V12.6875H7.875V11.8125ZM7.875 13.5625H14.875V14.4375H7.875V13.5625Z" fill="#2B59FF"/>
<path d="M6.125 6.5625H7V7.4375H6.125V6.5625ZM6.125 8.3125H7V9.1875H6.125V8.3125ZM6.125 10.0625H7V10.9375H6.125V10.0625ZM6.125 11.8125H7V12.6875H6.125V11.8125ZM6.125 13.5625H7V14.4375H6.125V13.5625Z" fill="#2B59FF"/>
</svg>

<svg width="21" height="21" fill="none" xmlns="http://www.w3.org/2000/svg"><path d="M17.063 19.688H3.938s-1.313-.044-1.313-3.5h15.75c0 3.456-1.313 3.5-1.313 3.5z" fill="#C4C4C4"/><path d="M3.5 1.313h14v14.874h-14V1.313z" fill="#fff"/><path d="M7.875 6.563h7v.875h-7v-.875zm0 1.75h7v.874h-7v-.874zm0 1.75h7v.874h-7v-.874zm0 1.75h7v.874h-7v-.874zm0 1.75h7v.874h-7v-.874zm-1.75-7H7v.875h-.875v-.875zm0 1.75H7v.874h-.875v-.874zm0 1.75H7v.874h-.875v-.874zm0 1.75H7v.874h-.875v-.874zm0 1.75H7v.874h-.875v-.874z" fill="#2B59FF"/></svg>
